img/Item.svg

<svg width="190" height="32" viewBox="0 0 190 32" fill="none" xmlns="http://www.w3.org/2000/svg">
<path d="M59.7015 3.19998C59.2637 1.7655 57.7313 0.993084 56.3085 1.43446C54.8856 1.87584 54.1194 3.42067 54.5572 4.85515L61.5622 26.5931C62.0547 27.9172 63.4776 28.6896 64.8458 28.3034C66.2687 27.862 67.1443 26.3724 66.7065 24.9379C66.7065 24.8827 59.7015 3.19998 59.7015 3.19998Z" fill="white"/>
<path d="M48.8657 6.78616C48.4279 5.35168 46.8955 4.57927 45.4726 5.02065C44.0498 5.46202 43.2836 7.00685 43.7214 8.44133L50.7264 30.1793C51.2189 31.5034 52.6418 32.2758 54.01 31.8896C55.4328 31.4482 56.3085 29.9586 55.8706 28.5241C55.8706 28.4689 48.8657 6.78616 48.8657 6.78616Z" fill="white"/>
<path d="M68.5672 21.2414C69.9901 20.8 70.7562 19.2552 70.3184 17.8207C69.8806 16.3862 68.3483 15.6138 66.9254 16.0552L45.3085 23.0621C43.995 23.5586 43.2289 24.9931 43.6119 26.3724C44.0498 27.8069 45.5274 28.6897 46.9503 28.2483C47.0597 28.2483 68.5672 21.2414 68.5672 21.2414Z" fill="white"/>
<path d="M49.796 27.3655C51.2189 26.9242 53.0249 26.3173 54.9403 25.6552C54.5025 24.2207 53.9005 22.4 53.2438 20.469L48.0995 22.1793L49.796 27.3655Z" fill="white"/>
<path d="M60.6866 23.7792C62.6567 23.1172 64.4627 22.5654 65.8308 22.0689C65.393 20.6344 64.791 18.8137 64.1343 16.8827L58.9901 18.593L60.6866 23.7792Z" fill="white"/>
<path d="M65.01 10.262C66.4328 9.82065 67.199 8.27582 66.7612 6.84134C66.3234 5.40686 64.791 4.63444 63.3682 5.07582L41.806 12.1379C40.4925 12.6344 39.7264 14.0689 40.1095 15.4482C40.5473 16.9379 42.0249 17.8206 43.4478 17.3241C43.5025 17.3241 65.01 10.262 65.01 10.262Z" fill="white"/>
<path d="M46.2935 16.3862C47.7164 15.9448 49.5224 15.3379 51.4378 14.6758C50.7811 12.6896 50.2338 10.8689 49.7413 9.48962L44.597 11.2L46.2935 16.3862Z" fill="white"/>
<path d="M57.1293 12.8552C59.0995 12.1931 60.9055 11.6414 62.2736 11.1448C61.6169 9.15862 61.0696 7.33793 60.5771 5.95862L55.4328 7.66896L57.1293 12.8552Z" fill="white"/>
<path d="M90.403 8.9379C91.3333 9.37928 91.4428 9.65514 90.6766 11.0896C89.9105 12.5793 89.7463 12.6345 88.7612 12.2482C87.5572 11.7517 86.0796 11.3655 85.0945 11.3655C83.5075 11.3655 82.4677 11.9172 82.4677 12.8C82.4677 15.6689 91.607 14.1241 91.607 20.3034C91.607 23.3931 88.9801 25.4345 85.0398 25.4345C82.9602 25.4345 80.3881 24.7172 78.6368 23.8345C77.7612 23.3931 77.7065 23.1172 78.4726 21.6276C79.1294 20.3586 79.3483 20.1931 80.2786 20.5793C81.811 21.2413 83.6716 21.7379 84.9851 21.7379C86.4627 21.7379 87.393 21.131 87.393 20.2482C87.393 17.4345 78.0896 18.7586 78.0896 12.8C78.0896 9.65514 80.7164 7.50342 84.602 7.50342C86.4627 7.66894 88.8159 8.22066 90.403 8.9379Z" fill="white"/>
<path d="M97.791 1.65517V24.6069C97.791 24.9379 97.408 25.3241 96.9154 25.3241H94.5075C93.9602 25.3241 93.6318 24.9379 93.6318 24.6069V1.65517C93.6318 0.496553 93.9602 0.441381 95.7114 0.441381C97.6816 0.386208 97.791 0.551726 97.791 1.65517Z" fill="white"/>
<path fill-rule="evenodd" clip-rule="evenodd" d="M114.756 24.3862V14.5103C114.756 10.2069 111.856 7.66895 107.259 7.66895C105.179 7.66895 102.881 8.33101 101.239 9.43446C100.363 9.98619 100.363 10.262 101.239 11.6414C102.169 13.0207 102.333 13.0758 103.209 12.5793C104.303 11.9172 105.672 11.4758 106.821 11.4758C109.229 11.4758 110.652 12.5793 110.652 14.4V15.5586C109.502 15.062 108.08 14.7862 106.547 14.7862C102.443 14.7862 99.7612 16.9931 99.7612 20.3034C99.7612 23.3931 102.169 25.4896 105.726 25.4896C107.587 25.4896 109.448 24.7172 110.706 23.2827L110.652 24.331C110.597 24.8827 110.98 25.2689 111.527 25.2689H113.881C114.373 25.2689 114.756 24.9379 114.756 24.3862ZM106.219 22.1793C104.741 22.1793 103.756 21.4069 103.756 20.2483C103.756 18.8138 105.234 17.7103 107.423 17.7103C108.463 17.7103 109.667 17.8758 110.597 18.262V19.8069C109.667 21.2965 108.025 22.1793 106.219 22.1793Z" fill="white"/>
<path d="M131.01 8.9931C131.886 9.48965 131.886 9.76552 130.955 11.2552C130.08 12.6345 129.915 12.7448 128.93 12.2483C128.219 11.8621 127.015 11.531 126.085 11.531C123.075 11.531 121.104 13.5172 121.104 16.5517C121.104 19.6965 123.075 21.7931 126.085 21.7931C127.124 21.7931 128.438 21.4069 129.259 20.9103C130.134 20.4138 130.299 20.4138 131.229 21.7931C132.05 23.0621 132.05 23.3379 131.284 23.8897C129.97 24.8276 127.836 25.5448 125.975 25.5448C120.448 25.5448 116.726 21.9586 116.726 16.6069C116.726 11.2552 120.448 7.72414 126.03 7.72414C127.781 7.66896 129.751 8.22069 131.01 8.9931Z" fill="white"/>
<path d="M149.124 23.1173C149.836 24 149.562 24.3311 147.811 24.938C146.06 25.6 145.786 25.5449 145.184 24.7173L140.204 18.0414L137.96 20.1931V24.5518C137.96 24.8828 137.577 25.269 137.085 25.269H134.677C134.129 25.269 133.801 24.8828 133.801 24.5518V1.6552C133.801 0.496579 134.129 0.441406 135.881 0.441406C137.905 0.441406 137.96 0.606924 137.96 1.6552V14.6759L144.746 8.11037C145.512 7.39313 145.896 7.4483 147.264 8.33106C148.741 9.26899 148.851 9.54485 148.139 10.2621L143.104 15.2276L149.124 23.1173Z" fill="white"/>
</svg>

<svg width="190" height="32" fill="none" xmlns="http://www.w3.org/2000/svg"><path d="M59.702 3.2c-.438-1.435-1.97-2.207-3.393-1.766-1.423.442-2.19 1.987-1.752 3.421l7.005 21.738c.493 1.324 1.916 2.097 3.284 1.71 1.423-.441 2.298-1.93 1.86-3.365 0-.055-7.005-21.738-7.005-21.738zM48.866 6.786c-.438-1.434-1.97-2.207-3.393-1.765-1.423.441-2.19 1.986-1.752 3.42l7.005 21.738c.493 1.324 1.916 2.097 3.284 1.71 1.423-.44 2.299-1.93 1.86-3.365 0-.055-7.004-21.738-7.004-21.738z" fill="#fff"/><path d="M68.567 21.241c1.423-.441 2.19-1.986 1.751-3.42-.437-1.435-1.97-2.207-3.393-1.766L45.31 23.062c-1.314.497-2.08 1.931-1.697 3.31.438 1.435 1.915 2.318 3.338 1.876.11 0 21.617-7.007 21.617-7.007z" fill="#fff"/><path d="M49.796 27.366a179.933 179.933 0 0 0 5.144-1.71 183.86 183.86 0 0 0-1.696-5.187l-5.145 1.71 1.697 5.187zM60.687 23.78c1.97-.663 3.776-1.215 5.144-1.711a183.86 183.86 0 0 0-1.697-5.186l-5.144 1.71 1.697 5.186zM65.01 10.262c1.423-.441 2.189-1.986 1.751-3.42-.438-1.435-1.97-2.208-3.393-1.766l-21.562 7.062c-1.313.496-2.08 1.93-1.697 3.31.438 1.49 1.916 2.373 3.339 1.876.054 0 21.562-7.062 21.562-7.062z" fill="#fff"/><path d="M46.294 16.386a180.282 180.282 0 0 0 5.144-1.71c-.657-1.986-1.204-3.807-1.697-5.186l-5.144 1.71 1.697 5.186zM57.13 12.855c1.97-.662 3.776-1.214 5.144-1.71-.657-1.986-1.204-3.807-1.697-5.186l-5.144 1.71 1.696 5.186zM90.403 8.938c.93.441 1.04.717.274 2.152-.767 1.49-.93 1.544-1.916 1.158-1.204-.496-2.681-.882-3.666-.882-1.588 0-2.627.551-2.627 1.434 0 2.869 9.139 1.324 9.139 7.503 0 3.09-2.627 5.131-6.567 5.131-2.08 0-4.652-.717-6.403-1.6-.876-.44-.93-.717-.164-2.206.656-1.27.875-1.435 1.806-1.049 1.532.662 3.393 1.159 4.706 1.159 1.478 0 2.408-.607 2.408-1.49 0-2.814-9.303-1.49-9.303-7.448 0-3.145 2.626-5.297 6.512-5.297 1.86.166 4.214.718 5.801 1.435zM97.791 1.655v22.952c0 .33-.383.717-.876.717h-2.408c-.547 0-.875-.386-.875-.717V1.655c0-1.158.328-1.214 2.08-1.214 1.97-.055 2.079.11 2.079 1.214z" fill="#fff"/><path fill-rule="evenodd" clip-rule="evenodd" d="M114.756 24.386V14.51c0-4.303-2.9-6.841-7.497-6.841-2.08 0-4.378.662-6.02 1.765-.876.552-.876.828 0 2.207.93 1.38 1.094 1.435 1.97.938 1.094-.662 2.463-1.103 3.612-1.103 2.408 0 3.831 1.103 3.831 2.924v1.159c-1.15-.497-2.572-.773-4.105-.773-4.104 0-6.786 2.207-6.786 5.517 0 3.09 2.408 5.187 5.965 5.187 1.861 0 3.722-.773 4.98-2.207l-.054 1.048c-.055.552.328.938.875.938h2.354c.492 0 .875-.331.875-.883zm-8.537-2.207c-1.478 0-2.463-.772-2.463-1.93 0-1.435 1.478-2.539 3.667-2.539 1.04 0 2.244.166 3.174.552v1.545c-.93 1.49-2.572 2.372-4.378 2.372z" fill="#fff"/><path d="M131.01 8.993c.876.497.876.773-.055 2.262-.875 1.38-1.04 1.49-2.025.993-.711-.386-1.915-.717-2.845-.717-3.01 0-4.981 1.986-4.981 5.02 0 3.146 1.971 5.242 4.981 5.242 1.039 0 2.353-.386 3.174-.883.875-.496 1.04-.496 1.97.883.821 1.27.821 1.545.055 2.097-1.314.938-3.448 1.655-5.309 1.655-5.527 0-9.249-3.586-9.249-8.938s3.722-8.883 9.304-8.883c1.751-.055 3.721.497 4.98 1.27zM149.124 23.117c.712.883.438 1.214-1.313 1.821-1.751.662-2.025.607-2.627-.22l-4.98-6.677-2.244 2.152v4.359c0 .33-.383.717-.875.717h-2.408c-.548 0-.876-.386-.876-.717V1.655c0-1.158.328-1.214 2.08-1.214 2.024 0 2.079.166 2.079 1.214v13.02l6.786-6.565c.766-.717 1.15-.662 2.518.221 1.477.938 1.587 1.214.875 1.931l-5.035 4.966 6.02 7.89z" fill="#fff"/></svg>
